X:1
T:Questa del mar
T:Questa del mar
T:Piero Benedetti
T:Source :  Musische di Piero Benedetti---Fiorenza---Heredes di C.Marescotti---1611. Editor : André Vierendeels (17/05/15).
C:Piero Benedetti
%%score 1 2
L:1/8
Q:1/4=70
M:2/2
K:C
V:1 treble nm="Soprano" snm="S"
V:2 bass nm="BC" snm="BC"
V:1
 G8 | G8 | z dGA B4 | c6 BA | GA/B/ c/d/e BB/c/ d/c/B | G2- G>A B/A/A/A/ A/A/A/G/- | A4 z2 cd | %7
w: Que-|sta|del mar d'A- mor|bel- la Si-|re- * * * * * * * * * * *|* * * * * * * * * * na,|_ a- mo-|
 e2 cd B4 | z B e4- d^c | A4- A2- B/c/d/e/ | f2 e/e/e/d/ ^c d2- d/c/- | dAG^F A2 B2 | c4 ^G4 |: %13
w: ro- so Noc- chier|col dol _ ce|can- * * * * *|* * * * * * * * to|_ gia non t'in- vi- t'al|pian- to,|
 z ecB cd B2- | B/c/d/c/ B/A/^G/^F/ E/F/G/F/ G/A/G/A/ | B/E/^F/^G/ A/B/c/d/ e2 Bd- | d2 c2 B4 | %17
w: al- tro ve non spie- gar|_ _ _ _ _ _ _ _ _ _ _ _ _ _ _ _|* * * * * * * * * d'A- mor|_ le Ve-|
 A8 | z2 A2 EEAG | ^F2 E2 z2 d2 | AAdc B2 A2 | z2 GG G2 GG | G4 G4 | z EFD E4 | E4 A2 B2 | %25
w: le,|ma- gha non è cru-|de- le, Ma-|gha non è cru- de- le,|dol- ce- men- te t'al-|let- ta|al ne- vo E-|li- s'o d'il|
 c/B/A/B/ c/d/e/c/ d4 | c4 z2 e2- | e2 B2 c4 | z2 A2 B/c/d/A/ B/G/A/^F/ | G/F/E/F/ G/A/B/c/ d3 G | %30
w: can- * * * * * * * *|to, o-|* d'il suon|va- gheg- * * * * * * *|* * * * * * * * gia il|
 A8 | G8 :| %32
w: vi-|so,|
V:2
 G,,8 | G,,8 | G,8 | C,2 D,2 E,4 | E,8 | E,6 E,2 |"^6#""^4 3""^#" D,4 A,,4 | A,,4 E,4 | %8
"^#" E,2 B,,2 ^C,4 | D,2 E,2 F,4- | F,2 G,2 A,4 |"^#" D,8 |"^#""^4""^#" E,2 E,2 E,4 |: %13
"^#" A,,6 E,2 |"^#" E,8 |"^#" E,8 |"^#""^4""^#" E,2 E,4 E,2 |"^#" A,,8 |"^#" A,,8 | %19
"^#""^#" A,,4 D,4 |"^#" D,8 | B,,8 | C,8 |"^#" C,2 D,2 A,,4 |"^#" A,,4 F,2 G,2 | A,4 G,2 G,2 | %26
"^4""^3" C,4 C,3 D, |"^4""^#" E,2 E,2 A,,4 |"^#" D,4 G,,4 | G,,6 B,,2 |"^4""^#" D,4 D,4 | G,,8 :| %32

